public/library/coldcard-text-dark.svg

<svg width="154" height="22" viewBox="0 0 154 22" fill="none" xmlns="http://www.w3.org/2000/svg">
<path d="M53.675 21.874H42.0116C40.5147 21.874 39.2982 20.6567 39.2982 19.1625V2.11277C39.2982 0.968491 40.2276 0.039801 41.3727 0.039801C42.5178 0.039801 43.4471 0.968491 43.4471 2.11277V17.728H53.675C54.8201 17.728 55.7494 18.6567 55.7494 19.801C55.7494 20.9453 54.8201 21.874 53.675 21.874Z" fill="#fff"/>
<path d="M30.798 22H24.9448C24.3938 22 23.8677 21.7811 23.4777 21.393L20.2582 18.1758C19.8698 17.7877 19.6508 17.2604 19.6508 16.7098V5.29022C19.6508 4.73963 19.8698 4.21227 20.2582 3.82421L23.4777 0.606965C23.8677 0.218906 24.3954 0 24.9448 0H30.798C31.349 0 31.8751 0.218906 32.2651 0.606965L35.4846 3.82421C35.8729 4.21227 36.092 4.73963 36.092 5.29022V16.7098C36.092 17.2604 35.8729 17.7877 35.4846 18.1758L32.2651 21.393C31.8767 21.7811 31.349 22 30.798 22ZM25.8044 17.8541H29.9384L31.9431 15.8507V6.14925L29.9384 4.14594H25.8044L23.7997 6.14925V15.8507L25.8044 17.8541Z" fill="#fff"/>
<path d="M61.0268 22C59.8817 22 58.9523 21.0713 58.9523 19.927V2.07297C58.954 0.92869 59.8834 0 61.0284 0H70.1012C70.6522 0 71.1783 0.218906 71.5683 0.606965L74.7878 3.82421C75.1761 4.21227 75.3952 4.73963 75.3952 5.29022V16.7098C75.3952 17.2604 75.1761 17.7877 74.7878 18.1758L71.5683 21.393C71.1799 21.7811 70.6522 22 70.1012 22H61.0268ZM63.1012 17.8541H69.2399L71.2447 15.8507V6.14925L69.2399 4.14594H63.1012V17.8541Z" fill="#fff"/>
<path d="M148.706 22H139.633C138.488 22 137.559 21.0713 137.559 19.927V2.07297C137.559 0.92869 138.488 0 139.633 0H148.706C149.257 0 149.783 0.218906 150.173 0.606965L153.393 3.82421C153.781 4.21227 154 4.73963 154 5.29022V16.7098C154 17.2604 153.781 17.7877 153.393 18.1758L150.173 21.393C149.785 21.7811 149.257 22 148.706 22ZM141.708 17.8541H147.846L149.851 15.8507V6.14925L147.846 4.14594H141.708V17.8541Z" fill="#fff"/>
<path d="M11.1472 22H5.29398C4.74467 22 4.21693 21.7811 3.82693 21.393L0.607397 18.1758C0.219061 17.7877 0 17.2604 0 16.7098V5.29022C0 4.73963 0.219061 4.21227 0.607397 3.82421L3.82693 0.606965C4.21693 0.218906 4.74467 0 5.29398 0H11.1456C11.6965 0 12.2243 0.218906 12.6126 0.606965L15.8321 3.82421C16.642 4.6335 16.642 5.94693 15.8321 6.75622C15.0223 7.56551 13.7079 7.56551 12.8981 6.75622L10.2859 4.14594H6.15197L4.14723 6.14925V15.8507L6.15197 17.8541H10.2859L12.8981 15.2438C13.7079 14.4345 15.0223 14.4345 15.8321 15.2438C16.642 16.0531 16.642 17.3665 15.8321 18.1758L12.6126 21.393C12.2243 21.7811 11.6965 22 11.1456 22H11.1472Z" fill="#fff"/>
<path d="M89.752 22H83.9004C83.3494 22 82.8234 21.7811 82.4334 21.393L79.2138 18.1758C78.8255 17.7877 78.6064 17.2604 78.6064 16.7098V5.29022C78.6064 4.73963 78.8255 4.21227 79.2138 3.82421L82.4334 0.606965C82.8217 0.218906 83.3494 0 83.8988 0H89.7504C90.3013 0 90.8291 0.218906 91.2174 0.606965L94.4369 3.82421C95.2468 4.6335 95.2468 5.94693 94.4369 6.75622C93.6271 7.56551 92.3127 7.56551 91.5028 6.75622L88.8907 4.14594H84.7568L82.752 6.14925V15.8507L84.7568 17.8541H88.8907L91.5028 15.2438C92.3127 14.4345 93.6271 14.4345 94.4369 15.2438C95.2468 16.0531 95.2468 17.3665 94.4369 18.1758L91.2174 21.393C90.8291 21.7811 90.3013 22 89.7504 22H89.752Z" fill="#fff"/>
<path d="M114.089 3.82421L110.87 0.606965C110.482 0.218906 109.954 0 109.403 0H103.551C103 0 102.472 0.218906 102.084 0.606965L98.8646 3.82421C98.4763 4.21227 98.2572 4.73963 98.2572 5.29022V19.927C98.2572 21.0713 99.1866 22 100.332 22C101.477 22 102.406 21.0713 102.406 19.927V15.4992H110.55V19.927C110.55 21.0713 111.479 22 112.624 22C113.769 22 114.698 21.0713 114.698 19.927V5.29022C114.698 4.73963 114.479 4.21227 114.091 3.82421H114.089ZM102.406 11.3516V6.1476L104.411 4.14428H108.545L110.55 6.1476V11.3516H102.406Z" fill="#fff"/>
<path d="M133.262 12.2985C133.963 11.5987 134.348 10.6683 134.348 9.67993V5.96517C134.348 4.97512 133.963 4.04643 133.262 3.3466L130.999 1.08458C130.298 0.384743 129.367 0 128.378 0H119.982C118.837 0 117.908 0.92869 117.908 2.07297V19.927C117.908 21.0713 118.837 22 119.982 22C121.128 22 122.057 21.0713 122.057 19.927V15.6451H125.744L130.72 21.2703C131.13 21.733 131.701 21.9701 132.275 21.9701C132.763 21.9701 133.254 21.7993 133.647 21.4511C134.505 20.6932 134.587 19.3831 133.828 18.5257L130.614 14.8922C130.748 14.791 130.877 14.6833 130.999 14.5622L133.262 12.3002V12.2985ZM122.055 4.14594H128.194L130.199 6.14925V9.49585L128.194 11.4992H122.055V4.14594Z" fill="#fff"/>
<path d="M152.161 20.2123L152.548 20.5987L152.427 20.7197L152.206 20.4992H152.106L151.937 20.6683L152.448 21.1791H152.548L152.732 20.995L152.848 21.1111L152.246 21.7131L152.13 21.597L152.314 21.4129V21.3134L151.803 20.8027L151.633 20.9718V21.0713L151.854 21.2919L151.733 21.4129L151.346 21.0265L152.163 20.2106L152.161 20.2123Z" fill="#fff"/>
<path d="M153.266 20.3085L152.666 19.9652L152.629 20.0017L153.13 20.5025H153.23L153.308 20.4245L153.424 20.5406L153.071 20.8939L152.954 20.7778L153.013 20.7197V20.6202L152.551 20.1592H152.452L152.394 20.2172L152.277 20.1012L152.626 19.7529L153.192 20.0879L152.857 19.5224L153.203 19.1758L153.32 19.2919L153.261 19.3499V19.4494L153.723 19.9104H153.822L153.881 19.8524L153.997 19.9685L153.643 20.3217L153.527 20.2056L153.603 20.1294V20.0299L153.102 19.529L153.067 19.5638L153.409 20.1658L153.266 20.3085Z" fill="#fff"/>
</svg>

<svg xmlns="http://www.w3.org/2000/svg" width="154" height="22" fill="none" viewBox="0 0 154 22"><path fill="#fff" d="M53.675 21.874H42.012a2.716 2.716 0 0 1-2.714-2.711V2.113a2.075 2.075 0 0 1 4.15 0v15.615h10.227c1.145 0 2.074.929 2.074 2.073s-.929 2.073-2.074 2.073M30.798 22h-5.853a2.08 2.08 0 0 1-1.467-.607l-3.22-3.217a2.07 2.07 0 0 1-.607-1.466V5.29c0-.55.219-1.078.607-1.466l3.22-3.217c.39-.388.917-.607 1.467-.607h5.853c.551 0 1.077.219 1.467.607l3.22 3.217c.388.388.607.916.607 1.466v11.42c0 .55-.22 1.078-.607 1.466l-3.22 3.217a2.08 2.08 0 0 1-1.467.607m-4.994-4.146h4.134l2.005-2.003V6.149l-2.005-2.003h-4.134L23.8 6.149v9.702zM61.027 22a2.075 2.075 0 0 1-2.075-2.073V2.073A2.077 2.077 0 0 1 61.028 0h9.073c.551 0 1.077.219 1.467.607l3.22 3.217c.388.388.607.916.607 1.466v11.42c0 .55-.219 1.078-.607 1.466l-3.22 3.217a2.08 2.08 0 0 1-1.467.607zm2.074-4.146h6.139l2.005-2.003V6.149L69.24 4.146H63.1zM148.706 22h-9.073a2.074 2.074 0 0 1-2.074-2.073V2.073c0-1.144.929-2.073 2.074-2.073h9.073c.551 0 1.077.219 1.467.607l3.22 3.217c.388.388.607.916.607 1.466v11.42c0 .55-.219 1.078-.607 1.466l-3.22 3.217a2.08 2.08 0 0 1-1.467.607m-6.998-4.146h6.138l2.005-2.003V6.149l-2.005-2.003h-6.138zM11.147 22H5.294c-.55 0-1.077-.219-1.467-.607l-3.22-3.217A2.07 2.07 0 0 1 0 16.71V5.29c0-.55.22-1.078.607-1.466L3.827.607C4.217.219 4.745 0 5.294 0h5.852c.55 0 1.078.219 1.467.607l3.22 3.217a2.073 2.073 0 1 1-2.935 2.932l-2.612-2.61H6.152L4.147 6.149v9.702l2.005 2.003h4.134l2.612-2.61a2.073 2.073 0 1 1 2.934 2.932l-3.22 3.217a2.08 2.08 0 0 1-1.466.607zM89.752 22H83.9a2.08 2.08 0 0 1-1.467-.607l-3.22-3.217a2.07 2.07 0 0 1-.607-1.466V5.29c0-.55.22-1.078.608-1.466l3.22-3.217A2.08 2.08 0 0 1 83.898 0h5.851c.551 0 1.08.219 1.467.607l3.22 3.217a2.073 2.073 0 1 1-2.934 2.932l-2.612-2.61h-4.134l-2.005 2.003v9.702l2.005 2.003h4.134l2.612-2.61a2.073 2.073 0 1 1 2.934 2.932l-3.22 3.217A2.08 2.08 0 0 1 89.75 22zM114.089 3.824 110.87.607A2.08 2.08 0 0 0 109.403 0h-5.852c-.551 0-1.079.219-1.467.607l-3.22 3.217a2.07 2.07 0 0 0-.607 1.466v14.637a2.075 2.075 0 0 0 4.149 0v-4.428h8.144v4.428a2.074 2.074 0 0 0 4.148 0V5.29c0-.55-.219-1.078-.607-1.466zm-11.683 7.528V6.148l2.005-2.004h4.134l2.005 2.004v5.204zM133.262 12.299a3.68 3.68 0 0 0 1.086-2.62V5.966c0-.99-.385-1.919-1.086-2.618l-2.263-2.262A3.69 3.69 0 0 0 128.378 0h-8.396a2.074 2.074 0 0 0-2.074 2.073v17.854a2.074 2.074 0 0 0 4.149 0v-4.282h3.687l4.976 5.625a2.07 2.07 0 0 0 2.927.181c.858-.758.94-2.068.181-2.925l-3.214-3.634q.202-.15.385-.33l2.263-2.262zm-11.207-8.153h6.139l2.005 2.003v3.347l-2.005 2.003h-6.139zM152.161 20.212l.387.387-.121.12-.221-.22h-.1l-.169.17.511.51h.1l.184-.184.116.116-.602.602-.116-.116.184-.184v-.1l-.511-.51-.17.169v.1l.221.22-.121.12-.387-.386.817-.815zM153.266 20.309l-.6-.344-.037.037.501.5h.1l.078-.078.116.117-.353.353-.117-.116.059-.058v-.1l-.462-.46h-.099l-.058.057-.117-.116.349-.348.566.335-.335-.566.346-.346.117.116-.059.058v.1l.462.46h.099l.059-.058.116.116-.354.354-.116-.116.076-.077v-.1l-.501-.5-.035.035.342.602z"/></svg>
